priv/static/svgs/icons_new/sport-swimming.svg

<svg width="32" height="32" viewBox="0 0 32 32" fill="none" xmlns="http://www.w3.org/2000/svg">
<path d="M20.5217 15.9135L15.5603 8.46848C15.2562 8.04795 14.7057 7.88856 14.2241 8.08074L8.57191 10.3416C7.992 10.5733 7.71052 11.2313 7.94226 11.8112C8.17513 12.3911 8.83304 12.6726 9.41183 12.4408L13.9663 10.6186L15.5015 13.2276L11.2533 15.9124M29 18.8753C28.4721 19.3534 27.752 19.9153 26.3989 19.9153C25.0457 19.9153 24.3257 19.3534 23.8 18.8775V18.8741C23.2743 18.3982 22.5543 17.8364 21.2011 17.8364C19.848 17.8364 19.1279 18.3982 18.6 18.8764C18.0721 19.3546 17.352 19.9164 15.9989 19.9164C14.6457 19.9164 13.9257 19.3546 13.4 18.8786V18.8753C12.8743 18.3993 12.1543 17.8375 10.8011 17.8375C9.448 17.8375 8.72791 18.3993 8.2 18.8775C7.67209 19.3557 6.952 19.9175 5.59887 19.9175C4.24574 19.9175 3.52565 19.3557 3 18.8798M29 21.9953C28.4721 22.4734 27.752 23.0353 26.3989 23.0353C25.0457 23.0353 24.3257 22.4734 23.8 21.9975V21.9941C23.2743 21.5182 22.5543 20.9564 21.2011 20.9564C19.848 20.9564 19.1279 21.5182 18.6 21.9964C18.0721 22.4746 17.352 23.0364 15.9989 23.0364C14.6457 23.0364 13.9257 22.4746 13.4 21.9986V21.9953C12.8743 21.5193 12.1543 20.9575 10.8011 20.9575C9.448 20.9575 8.72791 21.5193 8.2 21.9975C7.67209 22.4757 6.952 23.0375 5.59887 23.0375C4.24574 23.0375 3.52565 22.4757 3 21.9998M25.9478 11.3918C25.9478 12.9526 24.6825 14.2179 23.1217 14.2179C21.5609 14.2179 20.2957 12.9526 20.2957 11.3918C20.2957 9.83097 21.5609 8.56569 23.1217 8.56569C24.6825 8.56569 25.9478 9.83097 25.9478 11.3918Z" stroke="black" stroke-miterlimit="10" stroke-linecap="round"/>
</svg>

<svg width="32" height="32" viewBox="0 0 32 32" fill="none" xmlns="http://www.w3.org/2000/svg">
  <symbol id="item" viewBox="0 0 32 32" stroke-width="1" fill="none">
    <path d="M20.522 15.914 15.56 8.468a1.131 1.131 0 0 0-1.336-.387l-5.652 2.26a1.13 1.13 0 1 0 .84 2.1l4.554-1.822 1.536 2.609-4.249 2.684M29 18.875c-.528.478-1.248 1.04-2.601 1.04s-2.073-.562-2.599-1.037v-.004c-.526-.476-1.246-1.038-2.599-1.038-1.353 0-2.073.562-2.601 1.04-.528.479-1.248 1.04-2.601 1.04s-2.073-.561-2.599-1.037v-.004c-.526-.476-1.246-1.038-2.599-1.038-1.353 0-2.073.562-2.601 1.04-.528.479-1.248 1.04-2.601 1.04S3.526 19.357 3 18.88m26 3.115c-.528.478-1.248 1.04-2.601 1.04s-2.073-.562-2.599-1.038v-.003c-.526-.476-1.246-1.038-2.599-1.038-1.353 0-2.073.562-2.601 1.04-.528.479-1.248 1.04-2.601 1.04S13.926 22.475 13.4 22v-.004c-.526-.476-1.246-1.038-2.599-1.038-1.353 0-2.073.562-2.601 1.04-.528.479-1.248 1.04-2.601 1.04S3.526 22.477 3 22m22.948-10.608a2.826 2.826 0 1 1-5.652 0 2.826 2.826 0 0 1 5.652 0Z" stroke="currentColor" stroke-miterlimit="10" stroke-linecap="round"/>
  </symbol>
</svg>
